X:29
T:House to Finish
R:reel
C:Jim McGraw
O:Co. Fermanagh, Ireland
S:http://www.cranfordpub.com/recordings/mcgraw.htm
D:Melodious Accord, Jim McGraw
Z:psc
H:Musicians who play for set dancing know that each figure in a particular set consists of so many bars of music. So it looks more professional if musicians and dancers can finish in time together. Sometimes the musician can lose count and overshoot the runway so it is safer to ask the caller or dance tutor to give the call "House to Finish".
L:1/8
Q:333
M:C|
K:C
EG G/G/G FAGF|EGce dBGf|ec ~c2 fedc|BdAB GAGF|
EG G/G/G FAGF|EGce dBGd|ecfd gagf|[1edBd cAGF:|[2edBd c3||
||A|:GABc d3 e|fedc BGGF|EG G/G/G FA A/A/A|GECE D3 c|
BG (3(ABc) d2 de|fedc BGGF|EG G/G/G FDB,D|CEDB, C2 G/G/G|
GABc dGeG|fedc BGGF|EG G/G/G FA A/A/A|GECE D3 c|
(3(BAG) (3(ABc) d2 de|fedc BGGF|EG G/G/G FDB,D|CEDB, C2 CD|]
